-----BEGIN PGP PUBLIC KEY BLOCK-----
Version: Mailvelope v6.3.0
Comment: https://mailvelope.com

xsFNBGk4bTYBEACTzmNcoI5/ceoYV5LvjYkRSJBtjz927+i1drAMqm6C9VPx
7Lraxo72QLoC0WaAfMswKJkIJJ6ViIUUay4k3994VH4js+iwIScnexQb2M1z
5t9hUAZE9kZRU71cBwzZbiOIqJR0VCRDRAXUWTH9a6OLz7uAMo+OwTFpZMmP
RUNJJj0QhLF2or13lc2ReHKLxRX32fiSDp6iEQN98mNMrg+nI1XQLaaI9We4
QQ1csWuhjH3Sm7LT+gg+8HXjgFByCS7/Yy+YMuo4xOqlTFlSMpx2kNx4OO4h
enm3pAPfyysx3/KfUrlByphzzsQ+GPb19cvyITrXh1jEOvbSLVtWKKqixwUu
645w6jpLcLn97vzi30g1C+gnZjdPv9VAQnpEWWRzqH+NUni/y9pF+YREZIrs
u7IY3OZHjraCdlmasGHYdFSJSTgpYbbbYLxfXeY86jdBL2UPujip0d9AOhj6
UkusaJJxM5vqfNjl6LrkUQCibQDgcxZZSgiO7cl7a+0kTEGePQUq1a7bJsH2
N9ctkvA/3oXiZVYNGfE7c2d2mcOkLE62J00DmTIQmdBvIQN7qR+cBWS28N8h
FsTCAXHscEo9dUwQhuogpC8Q3bUk6MJ+6GOJAFYgSpe4tzAwQX5qXCoqQFb9
zHt/sgF9O5aIQwOrViiEuA8X9/WXku3WgynRxQARAQABzSNLb2xqYSBTYWdv
cnNraSA8a29samFAc2Fnb3Jza2kub3JnPsLBigQQAQgAPgWCaThtNgQLCQcI
CZBe+xlOrYvDnwMVCAoEFgACAQIZAQKbAwIeARYhBB3jSIqfaOhPspCEm177
GU6ti8OfAADdFg/+KozXKuNnSjgde4qk4ovOMirGi9cjgjPrCxRMgbzMQAAb
TH+ZhHedB5mUH6Zz+56+/cX8AwLv94GRwof5YW2K70Uj7wZKxLeUTgW3oCi6
b6C6U2t6hssHAF5PRHofrjHMEV2NOepg6NRAzAGopDphzoULty2Jk4d2BYhi
l52fuNBDb9+TWwxKMPV4RE4tyZUbYildV8h2cyfCR4KdrGcSau0B7lUvZncL
Y6qwPv2T9g/iQbkHSlyDG+WnffnBPcBSjyOjly+krG4+Iv4rxsEj7BQCp4pn
1tl8ugA93ToCK62eauIJlU3bIEcQiG7vFo8gKZoA8EhaHUrF+d/0+lUe+s0p
ACrEcCi5oYsqv2GMAmMXgSskBR3g6SaubPOKwzM25DVY/QH2wJL7rSoLRQoc
upE5k2boevFBxn4S37h7CfZ91BVgBcHE8wL3A2BnNVP9hRRfZA1G3XJi6ODN
1ADvTlClC/vTQOPnPsE8D5fHxUIEgcooM76/qtGAXupP7cOM7ufzo+v5p73f
EGKn4ym0PjDyAZGMRgBYkD3tG3GJV8M6PPngOBGe1VXJsQX/8z1KfN9jTokF
FDTh8V3w+rF2EtxGyWl1DymOiJbYNf3OugQAMrFB7Zft9FWrJOs/VAKEJUi6
CctH//4msae9vxGzTC01zze/G4mknLbnOueNVF/OwU0EaThtNgEQAJ59UquA
nXjSjXdRwE49q9NLR1gmA2iwbNuqF+n1L8fTHXUjdqT8JSjqD0+N4DKjOCOJ
2jd2do4pfHm7tiLLAVgX9IVmRx98ObKq+wz3eKUTV8kuII31vUVCMf+MkGjw
qBII+GnqtK1b/EwrUmbPGHLWC9d+YtlFX9et7QnqGQNU4XkXOOezX0pmWx/n
78x7lidbZqYOxilJyj0N/1O6PRuAabolPmziHzioct9YZESUGuwFaj7GOJCN
MJUaWCMF25kS4UZHU34osvPAQvaHIQnX65rLuLgfiHgesP7OQJN/BsiuEe/u
8RK+r0oF1tkDtA0yL3GkC6utnhH2DJOFjXEJyXqfz1ty+C7shUh2ze5w6PCC
zzZWh4JcL7QNZqdjD67ZGIaOqEceUn7kRGig71v75U+uzF695wAzZxdLOJcz
HsYbvymG5vmNpzfmACnohW7iLU9+OUCqoGobEsGdv+FCjkpEO42Tt0eK15E5
eyEfOqIYreagS+z1sbKlMfK73c9MVUEDDJWGupUlwKvpkOTiehW0ukuN+R/i
dRMrQVQAHBRcKa/jItpBll6/hnG6pmflHKWI/O/vIfIGY6GZ+dyu/fXZUZry
2CQkHfjfBQI4tWLormaNg0TJBTRVd69nYqKK9Mb0r9fW4hUIIPKlJDOTXkgK
RaqAOhwiJvQFUxlnABEBAAHCwXYEGAEIACoFgmk4bTYJkF77GU6ti8OfApsM
FiEEHeNIip9o6E+ykISbXvsZTq2Lw58AAMfVD/4lcnVv5CuTDQEY5fKnNEDF
uRzLbeWb8KLjUODsoP1NLnBeagjvk/N6cMbbYMebxC7pXjYxxjPDwYS9iD4z
47rM5nSTZynfUbEUUT8UXRbH1Wb6AWgEha+W5JfTECQbcKer27hi0NTHtzG8
llKzxasEZgN/UDeAZ6uCjySA0exIuXCagirJo8xSPfVpr7VeWgZtUb+8T/ws
MkWiiz5IfPgq02DcnbbFcnAndODpxCj83dsP3RQmlGJzLgyZcGHA+igp9VbN
ze1izSS8o+8jA1xHesVla+lcRYEBA3WGB21yjOW8jFOy+Jzs7w2GpAvaJpix
FtGGwlhgwrHw0kWBbnX44qKKbHknw+4eZXK9EUIhmapfsOGeHg6Dfm3E/ihh
pmYOXq6kQfs4RI3aRnQdLHMZCgCg8lkJbfBeBQE+ZyvCnUJHKiFX2Qpi9Y4o
UuP4bOhbxfGcK/sh0Vt+xltx855F4Hy2TMRmGQHMwesTEvW9gybyFotNe8+G
aCdsBSneyudooouFETVgnUiYtKhBOk8W8nx097BCpmEAcWzQ0YaAhwfqTWze
i2VaM+R1EC5oX5xEge4qPyU2HueKUWPyvYP3fL81Pf+eIV3nKkXjeuFXpMcY
Bl1EUjc6YBco+vo87+67PGLicUaN7K1/YW7r35U7RUKF2z9kqnfOB7QMzHos
oQ==
=CtsQ
-----END PGP PUBLIC KEY BLOCK-----
